T: Anderson Family Fling, The
M: 4/4
L: 1/8
K: Gmaj
|: DF AF/A/ | dc Bc | EF ~|: D2 FA | dc BA | BE ~|: G>A Bd | gf ed |eA ~ |: G>A Bd | gf ed | eA ~
